report_00007_2020-12-11T15:55:29.892Z/network-server-latency/comparison/line/11_vs_12.svg

<svg width="640" height="500" xmlns="http://www.w3.org/2000/svg" xmlns:xlink="http://www.w3.org/1999/xlink"><path fill="#fff" d="M0 0h640v500H0z"/><defs><path id="d" stroke-width=".222" stroke="currentColor" d="M-1-1h2v2h-2z"/><path id="b" stroke-width=".222" stroke="currentColor" d="M0-1.33l-1.33 2h2.66z"/><path id="f" stroke-width=".222" stroke="currentColor" d="M0 1.33L1.265.411.782-1.067l-1.564-.009-.483 1.487z"/><use xlink:href="#b" id="c" stroke="currentColor" transform="rotate(180)"/><use xlink:href="#d" id="e" stroke="currentColor" transform="rotate(45)"/><circle id="a" stroke-width=".222" stroke="currentColor" cx="0" cy="0" r="1"/></defs><g fill="none" color="#000" stroke="currentColor"><path stroke="#000" d="M53.9 352.7h9m552.1 0h-9"/><text transform="translate(45.6 356.6)" stroke="none" fill="#000" font-family="Arial" font-size="12" text-anchor="end"><tspan>3.5</tspan></text></g><g fill="none" color="#000" stroke="currentColor"><path stroke="#000" d="M53.9 266.7h9m552.1 0h-9"/><text transform="translate(45.6 270.6)" stroke="none" fill="#000" font-family="Arial" font-size="12" text-anchor="end"><tspan>4</tspan></text></g><g fill="none" color="#000" stroke="currentColor"><path stroke="#000" d="M53.9 180.6h9m552.1 0h-9"/><text transform="translate(45.6 184.5)" stroke="none" fill="#000" font-family="Arial" font-size="12" text-anchor="end"><tspan>4.5</tspan></text></g><g fill="none" color="#000" stroke="currentColor"><path stroke="#000" d="M53.9 94.6h9m552.1 0h-9"/><text transform="translate(45.6 98.5)" stroke="none" fill="#000" font-family="Arial" font-size="12" text-anchor="end"><tspan>5</tspan></text></g><g fill="none" color="#000" stroke="currentColor"><path stroke="#000" d="M53.9 428v-9m0-400.9v9"/><text transform="translate(53.9 449.9)" stroke="none" fill="#000" font-family="Arial" font-size="12" text-anchor="middle"><tspan>0</tspan></text></g><g fill="none" color="#000" stroke="currentColor"><path stroke="#000" d="M110.6 428v-9m0-400.9v9"/><text transform="translate(110.6 449.9)" stroke="none" fill="#000" font-family="Arial" font-size="12" text-anchor="middle"><tspan>10</tspan></text></g><g fill="none" color="#000" stroke="currentColor"><path stroke="#000" d="M167.3 428v-9m0-400.9v9"/><text transform="translate(167.3 449.9)" stroke="none" fill="#000" font-family="Arial" font-size="12" text-anchor="middle"><tspan>20</tspan></text></g><g fill="none" color="#000" stroke="currentColor"><path stroke="#000" d="M223.9 428v-9m0-400.9v9"/><text transform="translate(223.9 449.9)" stroke="none" fill="#000" font-family="Arial" font-size="12" text-anchor="middle"><tspan>30</tspan></text></g><g fill="none" color="#000" stroke="currentColor"><path stroke="#000" d="M280.6 428v-9m0-400.9v9"/><text transform="translate(280.6 449.9)" stroke="none" fill="#000" font-family="Arial" font-size="12" text-anchor="middle"><tspan>40</tspan></text></g><g fill="none" color="#000" stroke="currentColor"><path stroke="#000" d="M337.3 428v-9m0-400.9v9"/><text transform="translate(337.3 449.9)" stroke="none" fill="#000" font-family="Arial" font-size="12" text-anchor="middle"><tspan>50</tspan></text></g><g fill="none" color="#000" stroke="currentColor"><path stroke="#000" d="M394 428v-9m0-400.9v9"/><text transform="translate(394 449.9)" stroke="none" fill="#000" font-family="Arial" font-size="12" text-anchor="middle"><tspan>60</tspan></text></g><g fill="none" color="#000" stroke="currentColor"><path stroke="#000" d="M450.6 428v-9m0-400.9v9"/><text transform="translate(450.6 449.9)" stroke="none" fill="#000" font-family="Arial" font-size="12" text-anchor="middle"><tspan>70</tspan></text></g><g fill="none" color="#000" stroke="currentColor"><path stroke="#000" d="M507.3 428v-9m0-400.9v9"/><text transform="translate(507.3 449.9)" stroke="none" fill="#000" font-family="Arial" font-size="12" text-anchor="middle"><tspan>80</tspan></text></g><g fill="none" color="#000" stroke="currentColor"><path stroke="#000" d="M564 428v-9m0-400.9v9"/><text transform="translate(564 449.9)" stroke="none" fill="#000" font-family="Arial" font-size="12" text-anchor="middle"><tspan>90</tspan></text></g><path stroke="#000" d="M53.9 18.1V428H615V18.1H53.9z" fill="none" color="#000"/><text transform="translate(508.4 467.9)" stroke="none" fill="#000" font-family="Arial" font-size="12" text-anchor="end" color="#000"><tspan>pages+cached+noexternal+nofonts+nosvg+noimg</tspan></text><path stroke="#9400D3" d="M516.7 464h42.2m-505-193.1l5.7 15.9 5.6 40.6 5.7-196 5.7 186.2 5.6 3.6 5.7-52.5 5.7 68.1 5.6 18.4 5.7-161.7 5.7 88.2 5.6-13.1 5.7 2.9 5.7-86.1 5.6-5.3 5.7 67.1 5.7-108.6 5.7 27.7 5.6 178.9 5.7 48.7 5.7-42.5 5.6-215.5 5.7 215.2 5.7-165 5.6 118.5 5.7 85 5.7-22.9 5.6-29.1 5.7-207.2 5.7 57.5 5.6 34.9 5.7 23.9 5.7 50.7 5.6 41.8 5.7-2.9 5.7-19.1 5.6-36.6 5.7-27.8 5.7 84 5.6-64.5 5.7-23.2 5.7 32 5.6-18.9 5.7-14 5.7 52 5.6-6.8 5.7-93.5 5.7 150.7 5.6-77.9 5.7 112.7 5.7-8.1L343 246l5.6 101.2 5.7-160.9 5.7 124.3 5.6-139.4 5.7 132.1 5.7-38.5 5.6 23.3 5.7 31.4 5.7-96.7 5.6-42.8 5.7 155.4 5.7-71 5.6-28.1 5.7-44.3 5.7 58.2 5.6-168.6 5.7 188.5 5.7 7.5 5.6-132.8 5.7 115.8 5.7 13.9 5.6-130.7 5.7 235.1 5.7-131.7 5.6-93 5.7 54.6L496 84.2l5.6 141.3 5.7 129.5 5.7-173.6 5.6 112.5 5.7 29.6 5.7-8.9 5.7-15.1 5.6-18.4 5.7 9.4 5.7-74.8 5.6 38.7 5.7-76.1 5.7 62.3 5.6-19.4L581 296l5.7 45.3 5.6-54.2 5.7 18.7 5.7-65 5.6 34.1L615 97.6" fill="none" color="#000"/><text transform="translate(508.4 485.9)" stroke="none" fill="#000" font-family="Arial" font-size="12" text-anchor="end" color="#000"><tspan>pages+cached+noexternal+nofonts+nosvg+noimg+nocss</tspan></text><path stroke="#009E73" d="M516.7 482h42.2m-505-206.9l5.7-44.4 5.6-133.1 5.7 44.2 5.7 117.1 5.6 77.2 5.7-190.3 5.7 66.1L99.2 348l5.7-35.5 5.7-98.1 5.6 82.3 5.7-183.2 5.7 221.6 5.6-11.2 5.7-112.8 5.7-96.8 5.7-88.3 5.6 131.6 5.7 13.1 5.7-132.8 5.6 255.1 5.7-43.5 5.7-32.3 5.6 180.3 5.7-85.7 5.7-206.6 5.6 87.7 5.7 159.4 5.7-45.7 5.6-2.1 5.7-106.4 5.7 11.4 5.6 150.5 5.7-111 5.7 65 5.6-82.6 5.7 29.2 5.7-180.5 5.6 206.5 5.7-57.3 5.7 80 5.6-43.3 5.7-221.1 5.7 264.2 5.6-17.7 5.7-52.6 5.7 23.4 5.6-73.8 5.7 99.1 5.7-69.8 5.7 91.7 5.6 22.1 5.7-69.9 5.7 1.2 5.6 70 5.7-132.4 5.7-8.1 5.6 45.5 5.7 23.9 5.7-98.5 5.6 153.4 5.7-62 5.7 165.5 5.6-160.1 5.7 51.3 5.7-79.9 5.6 115.8 5.7-106.5 5.7 40.7 5.6 28.2 5.7-107.4 5.7 14.9 5.6 82.8 5.7-220.8 5.7 134.3 5.6 63.5 5.7 4.3 5.7 99.9 5.6-185.5 5.7 52.5 5.7-39.2 5.6-46.8 5.7 85.1 5.7 34.5 5.7-13.5 5.6 59.9 5.7-70.4 5.7 18.2 5.6-48 5.7-90.1 5.7 169.2 5.6-44.6 5.7 92.1 5.7-157.5 5.6 101 5.7-174.6 5.7-7.2 5.6 92.7L615 49.1" fill="none" color="#000"/><g fill="none" color="#000" stroke="currentColor"><path stroke="#000" d="M53.9 18.1V428H615V18.1H53.9z"/></g></svg>

<?xml version="1.0" encoding="utf-8"  standalone="no"?>
<svg 
 width="640" height="500"
 viewBox="0 0 640 500"
 xmlns="http://www.w3.org/2000/svg"
 xmlns:xlink="http://www.w3.org/1999/xlink"
>

<title>Gnuplot</title>
<desc>Produced by GNUPLOT 5.4 patchlevel 0 </desc>

<g id="gnuplot_canvas">

<rect x="0" y="0" width="640" height="500" fill="#ffffff"/>
<defs>

	<circle id='gpDot' r='0.5' stroke-width='0.5' stroke='currentColor'/>
	<path id='gpPt0' stroke-width='0.222' stroke='currentColor' d='M-1,0 h2 M0,-1 v2'/>
	<path id='gpPt1' stroke-width='0.222' stroke='currentColor' d='M-1,-1 L1,1 M1,-1 L-1,1'/>
	<path id='gpPt2' stroke-width='0.222' stroke='currentColor' d='M-1,0 L1,0 M0,-1 L0,1 M-1,-1 L1,1 M-1,1 L1,-1'/>
	<rect id='gpPt3' stroke-width='0.222' stroke='currentColor' x='-1' y='-1' width='2' height='2'/>
	<rect id='gpPt4' stroke-width='0.222' stroke='currentColor' fill='currentColor' x='-1' y='-1' width='2' height='2'/>
	<circle id='gpPt5' stroke-width='0.222' stroke='currentColor' cx='0' cy='0' r='1'/>
	<use xlink:href='#gpPt5' id='gpPt6' fill='currentColor' stroke='none'/>
	<path id='gpPt7' stroke-width='0.222' stroke='currentColor' d='M0,-1.33 L-1.33,0.67 L1.33,0.67 z'/>
	<use xlink:href='#gpPt7' id='gpPt8' fill='currentColor' stroke='none'/>
	<use xlink:href='#gpPt7' id='gpPt9' stroke='currentColor' transform='rotate(180)'/>
	<use xlink:href='#gpPt9' id='gpPt10' fill='currentColor' stroke='none'/>
	<use xlink:href='#gpPt3' id='gpPt11' stroke='currentColor' transform='rotate(45)'/>
	<use xlink:href='#gpPt11' id='gpPt12' fill='currentColor' stroke='none'/>
	<path id='gpPt13' stroke-width='0.222' stroke='currentColor' d='M0,1.330 L1.265,0.411 L0.782,-1.067 L-0.782,-1.076 L-1.265,0.411 z'/>
	<use xlink:href='#gpPt13' id='gpPt14' fill='currentColor' stroke='none'/>
	<filter id='textbox' filterUnits='objectBoundingBox' x='0' y='0' height='1' width='1'>
	  <feFlood flood-color='#FFFFFF' flood-opacity='1' result='bgnd'/>
	  <feComposite in='SourceGraphic' in2='bgnd' operator='atop'/>
	</filter>
	<filter id='greybox' filterUnits='objectBoundingBox' x='0' y='0' height='1' width='1'>
	  <feFlood flood-color='lightgrey' flood-opacity='1' result='grey'/>
	  <feComposite in='SourceGraphic' in2='grey' operator='atop'/>
	</filter>
</defs>
<g fill="none" color="#FFFFFF" stroke="black" stroke-width="1.00" stroke-linecap="butt" stroke-linejoin="miter">
</g>
<g fill="none" color="black" stroke="currentColor" stroke-width="1.00" stroke-linecap="butt" stroke-linejoin="miter">
	<path stroke='black'  d='M53.9,352.7 L62.9,352.7 M615.0,352.7 L606.0,352.7  '/>	<g transform="translate(45.6,356.6)" stroke="none" fill="black" font-family="Arial" font-size="12.00"  text-anchor="end">
		<text><tspan font-family="Arial" > 3.5</tspan></text>
	</g>
</g>
<g fill="none" color="black" stroke="currentColor" stroke-width="1.00" stroke-linecap="butt" stroke-linejoin="miter">
	<path stroke='black'  d='M53.9,266.7 L62.9,266.7 M615.0,266.7 L606.0,266.7  '/>	<g transform="translate(45.6,270.6)" stroke="none" fill="black" font-family="Arial" font-size="12.00"  text-anchor="end">
		<text><tspan font-family="Arial" > 4</tspan></text>
	</g>
</g>
<g fill="none" color="black" stroke="currentColor" stroke-width="1.00" stroke-linecap="butt" stroke-linejoin="miter">
	<path stroke='black'  d='M53.9,180.6 L62.9,180.6 M615.0,180.6 L606.0,180.6  '/>	<g transform="translate(45.6,184.5)" stroke="none" fill="black" font-family="Arial" font-size="12.00"  text-anchor="end">
		<text><tspan font-family="Arial" > 4.5</tspan></text>
	</g>
</g>
<g fill="none" color="black" stroke="currentColor" stroke-width="1.00" stroke-linecap="butt" stroke-linejoin="miter">
	<path stroke='black'  d='M53.9,94.6 L62.9,94.6 M615.0,94.6 L606.0,94.6  '/>	<g transform="translate(45.6,98.5)" stroke="none" fill="black" font-family="Arial" font-size="12.00"  text-anchor="end">
		<text><tspan font-family="Arial" > 5</tspan></text>
	</g>
</g>
<g fill="none" color="black" stroke="currentColor" stroke-width="1.00" stroke-linecap="butt" stroke-linejoin="miter">
	<path stroke='black'  d='M53.9,428.0 L53.9,419.0 M53.9,18.1 L53.9,27.1  '/>	<g transform="translate(53.9,449.9)" stroke="none" fill="black" font-family="Arial" font-size="12.00"  text-anchor="middle">
		<text><tspan font-family="Arial" > 0</tspan></text>
	</g>
</g>
<g fill="none" color="black" stroke="currentColor" stroke-width="1.00" stroke-linecap="butt" stroke-linejoin="miter">
	<path stroke='black'  d='M110.6,428.0 L110.6,419.0 M110.6,18.1 L110.6,27.1  '/>	<g transform="translate(110.6,449.9)" stroke="none" fill="black" font-family="Arial" font-size="12.00"  text-anchor="middle">
		<text><tspan font-family="Arial" > 10</tspan></text>
	</g>
</g>
<g fill="none" color="black" stroke="currentColor" stroke-width="1.00" stroke-linecap="butt" stroke-linejoin="miter">
	<path stroke='black'  d='M167.3,428.0 L167.3,419.0 M167.3,18.1 L167.3,27.1  '/>	<g transform="translate(167.3,449.9)" stroke="none" fill="black" font-family="Arial" font-size="12.00"  text-anchor="middle">
		<text><tspan font-family="Arial" > 20</tspan></text>
	</g>
</g>
<g fill="none" color="black" stroke="currentColor" stroke-width="1.00" stroke-linecap="butt" stroke-linejoin="miter">
	<path stroke='black'  d='M223.9,428.0 L223.9,419.0 M223.9,18.1 L223.9,27.1  '/>	<g transform="translate(223.9,449.9)" stroke="none" fill="black" font-family="Arial" font-size="12.00"  text-anchor="middle">
		<text><tspan font-family="Arial" > 30</tspan></text>
	</g>
</g>
<g fill="none" color="black" stroke="currentColor" stroke-width="1.00" stroke-linecap="butt" stroke-linejoin="miter">
	<path stroke='black'  d='M280.6,428.0 L280.6,419.0 M280.6,18.1 L280.6,27.1  '/>	<g transform="translate(280.6,449.9)" stroke="none" fill="black" font-family="Arial" font-size="12.00"  text-anchor="middle">
		<text><tspan font-family="Arial" > 40</tspan></text>
	</g>
</g>
<g fill="none" color="black" stroke="currentColor" stroke-width="1.00" stroke-linecap="butt" stroke-linejoin="miter">
	<path stroke='black'  d='M337.3,428.0 L337.3,419.0 M337.3,18.1 L337.3,27.1  '/>	<g transform="translate(337.3,449.9)" stroke="none" fill="black" font-family="Arial" font-size="12.00"  text-anchor="middle">
		<text><tspan font-family="Arial" > 50</tspan></text>
	</g>
</g>
<g fill="none" color="black" stroke="currentColor" stroke-width="1.00" stroke-linecap="butt" stroke-linejoin="miter">
	<path stroke='black'  d='M394.0,428.0 L394.0,419.0 M394.0,18.1 L394.0,27.1  '/>	<g transform="translate(394.0,449.9)" stroke="none" fill="black" font-family="Arial" font-size="12.00"  text-anchor="middle">
		<text><tspan font-family="Arial" > 60</tspan></text>
	</g>
</g>
<g fill="none" color="black" stroke="currentColor" stroke-width="1.00" stroke-linecap="butt" stroke-linejoin="miter">
	<path stroke='black'  d='M450.6,428.0 L450.6,419.0 M450.6,18.1 L450.6,27.1  '/>	<g transform="translate(450.6,449.9)" stroke="none" fill="black" font-family="Arial" font-size="12.00"  text-anchor="middle">
		<text><tspan font-family="Arial" > 70</tspan></text>
	</g>
</g>
<g fill="none" color="black" stroke="currentColor" stroke-width="1.00" stroke-linecap="butt" stroke-linejoin="miter">
	<path stroke='black'  d='M507.3,428.0 L507.3,419.0 M507.3,18.1 L507.3,27.1  '/>	<g transform="translate(507.3,449.9)" stroke="none" fill="black" font-family="Arial" font-size="12.00"  text-anchor="middle">
		<text><tspan font-family="Arial" > 80</tspan></text>
	</g>
</g>
<g fill="none" color="black" stroke="currentColor" stroke-width="1.00" stroke-linecap="butt" stroke-linejoin="miter">
	<path stroke='black'  d='M564.0,428.0 L564.0,419.0 M564.0,18.1 L564.0,27.1  '/>	<g transform="translate(564.0,449.9)" stroke="none" fill="black" font-family="Arial" font-size="12.00"  text-anchor="middle">
		<text><tspan font-family="Arial" > 90</tspan></text>
	</g>
</g>
<g fill="none" color="black" stroke="currentColor" stroke-width="1.00" stroke-linecap="butt" stroke-linejoin="miter">
</g>
<g fill="none" color="black" stroke="currentColor" stroke-width="1.00" stroke-linecap="butt" stroke-linejoin="miter">
	<path stroke='black'  d='M53.9,18.1 L53.9,428.0 L615.0,428.0 L615.0,18.1 L53.9,18.1 Z  '/></g>
<g fill="none" color="black" stroke="currentColor" stroke-width="1.00" stroke-linecap="butt" stroke-linejoin="miter">
</g>
	<g id="gnuplot_plot_1" ><title>pages+cached+noexternal+nofonts+nosvg+noimg</title>
<g fill="none" color="black" stroke="currentColor" stroke-width="1.00" stroke-linecap="butt" stroke-linejoin="miter">
	<g transform="translate(508.4,467.9)" stroke="none" fill="black" font-family="Arial" font-size="12.00"  text-anchor="end">
		<text><tspan font-family="Arial" >pages+cached+noexternal+nofonts+nosvg+noimg</tspan></text>
	</g>
</g>
<g fill="none" color="black" stroke="currentColor" stroke-width="1.00" stroke-linecap="butt" stroke-linejoin="miter">
	<path stroke='rgb(148,   0, 211)'  d='M516.7,464.0 L558.9,464.0 M53.9,270.9 L59.6,286.8 L65.2,327.4 L70.9,131.4 L76.6,317.6 L82.2,321.2
		L87.9,268.7 L93.6,336.8 L99.2,355.2 L104.9,193.5 L110.6,281.7 L116.2,268.6 L121.9,271.5 L127.6,185.4
		L133.2,180.1 L138.9,247.2 L144.6,138.6 L150.3,166.3 L155.9,345.2 L161.6,393.9 L167.3,351.4 L172.9,135.9
		L178.6,351.1 L184.3,186.1 L189.9,304.6 L195.6,389.6 L201.3,366.7 L206.9,337.6 L212.6,130.4 L218.3,187.9
		L223.9,222.8 L229.6,246.7 L235.3,297.4 L240.9,339.2 L246.6,336.3 L252.3,317.2 L257.9,280.6 L263.6,252.8
		L269.3,336.8 L274.9,272.3 L280.6,249.1 L286.3,281.1 L291.9,262.2 L297.6,248.2 L303.3,300.2 L308.9,293.4
		L314.6,199.9 L320.3,350.6 L325.9,272.7 L331.6,385.4 L337.3,377.3 L343.0,246.0 L348.6,347.2 L354.3,186.3
		L360.0,310.6 L365.6,171.2 L371.3,303.3 L377.0,264.8 L382.6,288.1 L388.3,319.5 L394.0,222.8 L399.6,180.0
		L405.3,335.4 L411.0,264.4 L416.6,236.3 L422.3,192.0 L428.0,250.2 L433.6,81.6 L439.3,270.1 L445.0,277.6
		L450.6,144.8 L456.3,260.6 L462.0,274.5 L467.6,143.8 L473.3,378.9 L479.0,247.2 L484.6,154.2 L490.3,208.8
		L496.0,84.2 L501.6,225.5 L507.3,355.0 L513.0,181.4 L518.6,293.9 L524.3,323.5 L530.0,314.6 L535.7,299.5
		L541.3,281.1 L547.0,290.5 L552.7,215.7 L558.3,254.4 L564.0,178.3 L569.7,240.6 L575.3,221.2 L581.0,296.0
		L586.7,341.3 L592.3,287.1 L598.0,305.8 L603.7,240.8 L609.3,274.9 L615.0,97.6  '/></g>
	</g>
	<g id="gnuplot_plot_2" ><title>pages+cached+noexternal+nofonts+nosvg+noimg+nocss</title>
<g fill="none" color="black" stroke="currentColor" stroke-width="1.00" stroke-linecap="butt" stroke-linejoin="miter">
	<g transform="translate(508.4,485.9)" stroke="none" fill="black" font-family="Arial" font-size="12.00"  text-anchor="end">
		<text><tspan font-family="Arial" >pages+cached+noexternal+nofonts+nosvg+noimg+nocss</tspan></text>
	</g>
</g>
<g fill="none" color="black" stroke="currentColor" stroke-width="1.00" stroke-linecap="butt" stroke-linejoin="miter">
	<path stroke='rgb(  0, 158, 115)'  d='M516.7,482.0 L558.9,482.0 M53.9,275.1 L59.6,230.7 L65.2,97.6 L70.9,141.8 L76.6,258.9 L82.2,336.1
		L87.9,145.8 L93.6,211.9 L99.2,348.0 L104.9,312.5 L110.6,214.4 L116.2,296.7 L121.9,113.5 L127.6,335.1
		L133.2,323.9 L138.9,211.1 L144.6,114.3 L150.3,26.0 L155.9,157.6 L161.6,170.7 L167.3,37.9 L172.9,293.0
		L178.6,249.5 L184.3,217.2 L189.9,397.5 L195.6,311.8 L201.3,105.2 L206.9,192.9 L212.6,352.3 L218.3,306.6
		L223.9,304.5 L229.6,198.1 L235.3,209.5 L240.9,360.0 L246.6,249.0 L252.3,314.0 L257.9,231.4 L263.6,260.6
		L269.3,80.1 L274.9,286.6 L280.6,229.3 L286.3,309.3 L291.9,266.0 L297.6,44.9 L303.3,309.1 L308.9,291.4
		L314.6,238.8 L320.3,262.2 L325.9,188.4 L331.6,287.5 L337.3,217.7 L343.0,309.4 L348.6,331.5 L354.3,261.6
		L360.0,262.8 L365.6,332.8 L371.3,200.4 L377.0,192.3 L382.6,237.8 L388.3,261.7 L394.0,163.2 L399.6,316.6
		L405.3,254.6 L411.0,420.1 L416.6,260.0 L422.3,311.3 L428.0,231.4 L433.6,347.2 L439.3,240.7 L445.0,281.4
		L450.6,309.6 L456.3,202.2 L462.0,217.1 L467.6,299.9 L473.3,79.1 L479.0,213.4 L484.6,276.9 L490.3,281.2
		L496.0,381.1 L501.6,195.6 L507.3,248.1 L513.0,208.9 L518.6,162.1 L524.3,247.2 L530.0,281.7 L535.7,268.2
		L541.3,328.1 L547.0,257.7 L552.7,275.9 L558.3,227.9 L564.0,137.8 L569.7,307.0 L575.3,262.4 L581.0,354.5
		L586.7,197.0 L592.3,298.0 L598.0,123.4 L603.7,116.2 L609.3,208.9 L615.0,49.1  '/></g>
	</g>
<g fill="none" color="#FFFFFF" stroke="rgb(  0, 158, 115)" stroke-width="2.00" stroke-linecap="butt" stroke-linejoin="miter">
</g>
<g fill="none" color="black" stroke="currentColor" stroke-width="2.00" stroke-linecap="butt" stroke-linejoin="miter">
</g>
<g fill="none" color="black" stroke="black" stroke-width="1.00" stroke-linecap="butt" stroke-linejoin="miter">
</g>
<g fill="none" color="black" stroke="currentColor" stroke-width="1.00" stroke-linecap="butt" stroke-linejoin="miter">
	<path stroke='black'  d='M53.9,18.1 L53.9,428.0 L615.0,428.0 L615.0,18.1 L53.9,18.1 Z  '/></g>
<g fill="none" color="black" stroke="currentColor" stroke-width="1.00" stroke-linecap="butt" stroke-linejoin="miter">
</g>
</g>
</svg>
